svg/fluentui-system-icons/ic_fluent_binder_triangle_20_regular.svg

<svg width="20" height="20" viewBox="0 0 20 20" fill="none" xmlns="http://www.w3.org/2000/svg">
<path d="M3 4C3 2.89543 3.89543 2 5 2H12C13.1046 2 14 2.89543 14 4V5.89565L13 7.0864V4C13 3.44772 12.5523 3 12 3H5C4.44772 3 4 3.44772 4 4H4.5C4.77614 4 5 4.22386 5 4.5C5 4.77614 4.77614 5 4.5 5H4V8H4.5C4.77614 8 5 8.22386 5 8.5C5 8.77614 4.77614 9 4.5 9H4V12H4.5C4.77614 12 5 12.2239 5 12.5C5 12.7761 4.77614 13 4.5 13H4C4 13.5523 4.44772 14 5 14H7.19391L6.35411 15H5C3.89543 15 3 14.1046 3 13H2.5C2.22386 13 2 12.7761 2 12.5C2 12.2239 2.22386 12 2.5 12H3V9H2.5C2.22386 9 2 8.77614 2 8.5C2 8.22386 2.22386 8 2.5 8H3V5H2.5C2.22386 5 2 4.77614 2 4.5C2 4.22386 2.22386 4 2.5 4H3ZM15.0032 11.6097C15.0035 11.3762 14.7119 11.2699 14.5617 11.4488L11.9228 14.5935C11.7863 14.7562 11.902 15.0042 12.1143 15.0042L14.2508 15.0041C14.6647 15.004 15.0003 14.6687 15.0007 14.2548L15.0032 11.6097ZM17.9961 4.75137C17.9961 4.05131 17.122 3.73296 16.6718 4.26904L6.17577 16.7671C5.76597 17.2551 6.11288 17.9995 6.7501 17.9995H15.9961C17.1007 17.9995 17.9961 17.104 17.9961 15.9995V4.75137ZM16.9961 5.43779V15.9995C16.9961 16.5518 16.5484 16.9995 15.9961 16.9995H7.28652L16.9961 5.43779ZM6 6.5C6 6.22386 6.22386 6 6.5 6H10.5C10.7761 6 11 6.22386 11 6.5C11 6.77614 10.7761 7 10.5 7H6.5C6.22386 7 6 6.77614 6 6.5Z" fill="#212121"/>
</svg>

<svg xmlns="http://www.w3.org/2000/svg" width="20" height="20"><path d="M3 4a2 2 0 0 1 2-2h7a2 2 0 0 1 2 2v1.896l-1 1.19V4a1 1 0 0 0-1-1H5a1 1 0 0 0-1 1h.5a.5.5 0 0 1 0 1H4v3h.5a.5.5 0 0 1 0 1H4v3h.5a.5.5 0 0 1 0 1H4a1 1 0 0 0 1 1h2.194l-.84 1H5a2 2 0 0 1-2-2h-.5a.5.5 0 0 1 0-1H3V9h-.5a.5.5 0 0 1 0-1H3V5h-.5a.5.5 0 0 1 0-1H3Zm12.003 7.61a.25.25 0 0 0-.441-.161l-2.64 3.145a.25.25 0 0 0 .192.41h2.137a.75.75 0 0 0 .75-.75l.002-2.644Zm2.993-6.859c0-.7-.874-1.018-1.324-.482L6.176 16.767A.75.75 0 0 0 6.75 18h9.246a2 2 0 0 0 2-2V4.75Zm-1 .687v10.561a1 1 0 0 1-1 1h-8.71l9.71-11.561ZM6 6.5a.5.5 0 0 1 .5-.5h4a.5.5 0 0 1 0 1h-4a.5.5 0 0 1-.5-.5Z"/></svg>
